X: 16
T: Goodbye Liza Jane [1]
B: canberra pickers and fiddlers
B: tunes
M:2/4
L:1/8
R: reel
Q: 1/4=100
K:A
V:1 
[EA] [FA][GA]||[AA]A/c/ B/A/B/d/|c/A/c/e/ d/c/B/d/|c/B/A/c/ B/A/G/B/|G/F/E- EE/G/|
[AA]A/c/ B/A/B/d/|c/A/c/e/ d/c/B/d/|c/B/A/c/ B/A/G/B/|[A2A2]-[AA][E/A/][G/A/]|
[AA]A/c/ B/A/B/d/|c/A/c/e/ d/c/B/d/|c/B/A- A/c/B/A/|G/F/E- EE/G/|
[AA]A/c/ B/A/B/d/|c/A/c/e/ d/c/B/d/|c/B/A/c/ B/A/G/B/|[A2A2]- [A/A/]A/c|
{[ce]}[e2e2] {e}f>e|[ce][e2e2][E/A/][F/A/]|[AA]A/c/ B/A/B/e/|{B}c2- c/B/A/c/|
{[ce]}[e2e2]{e}f>e|ce2 A/B/|c/B/A/c/ B/A/G/B/|[A2A2]-[A/A/]A/c|
{[ce]}[e2e2]{e}f>e|[ce][e2e2][E/A/][F/A/]|[AA]A/c/ B/A/B/e/|{B}c2 c/B/A/c/|
{[ce]}[e2e2]{e}f>e|c [e2e2]A/B/|c/B/A/c/ B/A/G/B/|[AA]||
% abcbook-tune_id 63ae8f1cb834c9d07e81ef57
% abcbook-tune_composer_id 
% abcbook-link-0 https://www.youtube.com/watch?v=ERy9owxkl5A
% abcbook-link-start-at-0 7
% abcbook-boost 7
% abcbook-difficulty 0
% abcbook-tags canberra pickers and fiddlers,old time tunes,steve ryan,© free
% abcbook-tablature 
% abcbook-transpose 
% abcbook-tuning AEAE
% abcbook-lastupdated 1738711673984
% abcbook-src-url https://tunebook.net/scrape/tunes.abc
% abcbook-soundfonts 
% abcbook-repeats 1


